X:1
T:The Silv'ry Rio Grande
M:2/4
L:1/8
K:G
 G3/2 A/2| BB BA| Bd dB| AG GE| G2 G3/2 A/2| BB BA| B d2d/2-d/2| dB GB|\
 A2| G3/2 A/2| BB BA| Bd dB| AG GE| G2 G3/2 G/2| AA AA|B-B-BA/2-A/2|\
 G G/2G/2 EE| G2||
